X: 9
T: Contentment Is Wealth
R: jig
M: 6/8
L: 1/8
K: Edor
f||:g3 edB|BAB EFG|F3 DFA|dAF AFD|
g3 edB|BAB E3|Bc/d/B AGF|1 GED EGB:|2 GED E2||
B|e3 Beg|bge gfe|dB/c/d Adf|afd g/f/ed|
e3 Beg|bge gfe|d3 AGF| GED E3|
e3 g3|b3 gfe|dB/c/d fad|fad g/f/ed|
g3 a3|bag fad|B/c/dB AGF| GED E2||


Tune 1662	Setting 29534

